X:1
T:Rio Cali
T:Rio Cali
T:Pasillo
T:Sebastián Solari
C:Sebastián Solari
L:1/8
M:3/4
K:F
V:1 treble+8 nm="Flauta dulce" snm="Fl. dul."
V:1
|:!p! (D^C)"_cresc." D(F E)F | (A^G) A(d ^c)d |!f!!>(! .e2 .d2 B2-!>)! | B!mp!(A GF ED) | %4
 (^CD EF GA) | (BA ^GA ^ce) | (ed ^cd ed) | !>!.fB AG FE |!p! (D^C)"_cresc." D(F E)F | %9
 (A^G) A(d ^c)d |!mf!!>(! .e2 .d2 B2-!>)! | B!mp!(A GF ED) |"_cresc." (^CD EF GA) | (BA ^GA ^ce) |1 %14
!f! !>!.d2 z !>!.d !>!.d2 | z!f! B AG FE :|2!f! !>!.d2 z !>!.d !>!.d2!dacoda! |: z2!mf! d2 d2 | %18
 dd z c c2 | dd z c c2 | f2 z f f2 | z f ff ff | (fe) (ed) (d^c) | (^cB) (BA) (AG) | %24
 (GF) (EF G^G) | A z ^G2 A2 | BB z A A2 | BB z A A2 | dd z d d2 | z d dd dd | (ed ^cB AG) | %31
 (gf ed ^ce) |!f! !>!.d2 z !>!.d !>!.d2 :|!>(! z (B AG FE)!>)!!D.C.! |:[K:D]O z2!mf! .f2 .f2 | %35
 (dc =cB _BA) | (f=f e_e dc) | (e_e dc =cB) | (gf =fe _ed) | gc cg gc | cg gc cg | fA Af fA | %42
 Af fA Af | (dc =cB _BA) | (f=f e_e dc) | (e_e dc =cB) | (gf =fe _ed) | gc cg gc | cg gA Bc | %49
 !>!.d2 z !>!.d !>!.d2 :|[K:F]!>(! z (B AG FE)!>)! |!p! (D^C)"_cresc." D(F E)F | (A^G) A(d ^c)d | %53
!f!!>(! .e2 .d2 B2-!>)! | B!mp!(A GF ED) | (^CD EF GA) | (BA ^GA ^ce) | (ed ^cd ed) | %58
 !>!.fB AG FE |!p! (D^C)"_cresc." D(F E)F | (A^G) A(d ^c)d |!mf!!>(! .e2 .d2 B2-!>)! | %62
 B!mp!(A GF ED) |"_cresc." (^CD EF GA) | (BA ^GA ^ce) |!mf! d^c =c=B _BA | _AG _GF E_E | %67
 D^D EF ^FG | ^GA B=B c^c | !>!.d2 z !>!.d !>!.d2 |] %70

